X:5688
T:Gan ainm
R:Reel
S:Billy McComiskey
H:
N:Also in CRE somewhere
D:Making the Rounds
Z:Adrian Scahill
M:2/2
L:1/8
K:G
ABAG EFGE|AGAB cded|cAag ef(3gfg|1 aged ^cAdc:|2 aged ^cAA2||
egdg egdc|BGGA BcdB|e3f eAab|aged ^cAA2|\
a2ea aged|^cAAG EFGE|A^GAB cdef|(3gfg ea ged^c||
